icons/svg/overlays/access_permit.svg

<svg xmlns:ns0="http://sodipodi.sourceforge.net/DTD/sodipodi-0.dtd" xmlns:ns1="http://www.inkscape.org/namespaces/inkscape" xmlns:rdf="http://www.w3.org/1999/02/22-rdf-syntax-ns#" width="48" height="48" viewBox="0 0 700 700" fill="none" version="1.1" id="svg8" ns0:docname="access_permit.svg" ns1:version="0.92.5 (2060ec1f9f, 2020-04-08)" xmlns="http://www.w3.org/2000/svg">
  <metadata id="metadata14">
    <RDF>
      <Work rdf:about="">
        <format>image/svg+xml</format>
        <type rdf:resource="http://purl.org/dc/dcmitype/StillImage" />
      </Work>
    </RDF>
  </metadata>
  <defs id="defs12" />
  <namedview pagecolor="#ffffff" bordercolor="#666666" borderopacity="1" objecttolerance="10" gridtolerance="10" guidetolerance="10" ns1:pageopacity="0" ns1:pageshadow="2" ns1:window-width="1920" ns1:window-height="1014" id="namedview10" showgrid="false" ns1:zoom="0.67428571" ns1:cx="206.48222" ns1:cy="471.47364" ns1:window-x="1920" ns1:window-y="0" ns1:window-maximized="1" ns1:current-layer="svg8" />
  <path d="M350 0C322.134 0 300.531 14.0377 289.88 30.9652C285.959 37.1973 283.809 43.2202 282.31 48.5504C271.261 52.7311 264.978 63.8237 264.978 73.5857V164.05C264.978 176.324 274.692 190.896 291.694 190.896H408.306C425.308 190.896 435.022 176.324 435.022 164.05V73.5857C435.022 63.8237 428.739 52.7311 417.69 48.5504C416.191 43.2206 414.041 37.1988 410.12 30.9671V30.9651C399.468 14.0358 377.865 2.8e-06 350 0Z" fill="#FEFEFE" id="path2" />
  <path fill-rule="evenodd" clip-rule="evenodd" d="M290.37 72.244C289.975 72.244 289.656 72.6216 289.656 73.0903V165.608C289.656 166.076 289.975 166.454 290.37 166.454H409.63C410.025 166.454 410.344 166.076 410.344 165.608V73.0903C410.344 72.6216 410.025 72.244 409.63 72.244H290.37ZM341.26 91.8435H358.74C359.224 91.8435 359.616 92.2321 359.616 92.7164V118.411C364.089 121.545 366.754 126.662 366.757 132.124C366.758 141.38 359.256 148.883 350 148.884C340.744 148.883 333.242 141.38 333.243 132.124C333.251 126.667 335.915 121.556 340.384 118.425V92.7164C340.384 92.2321 340.776 91.8435 341.26 91.8435V91.8435Z" fill="#AD0B0B" id="path4" style="fill:#3c9d7f;fill-opacity:1" />
  <path d="M314.178 104.172V63.5251C314.178 63.5251 315.482 34.0231 350 34.0231C384.518 34.0231 385.822 63.5251 385.822 63.5251V104.93" stroke="#AD0B0B" stroke-width="19.162" id="path6" style="stroke:#3c9d7f;stroke-opacity:0.94117647" />
</svg>

<svg width="48" height="48" fill="none" version="1.1" viewBox="0 0 700 700" xmlns="http://www.w3.org/2000/svg">
 <namedview bordercolor="#666666" borderopacity="1" gridtolerance="10" guidetolerance="10" objecttolerance="10" pagecolor="#ffffff" showgrid="false"/>
 <path d="m350 0c-27.866 0-49.469 14.038-60.12 30.965-3.921 6.2321-6.071 12.255-7.57 17.585-11.049 4.1807-17.332 15.273-17.332 25.035v90.464c0 12.274 9.714 26.846 26.716 26.846h116.61c17.002 0 26.716-14.572 26.716-26.846v-90.464c0-9.762-6.283-20.855-17.332-25.035-1.499-5.3298-3.649-11.352-7.57-17.583v-2e-3c-10.652-16.929-32.255-30.965-60.12-30.965z" fill="#FEFEFE"/>
 <path d="m290.37 72.244c-0.395 0-0.714 0.3776-0.714 0.8463v92.518c0 0.468 0.319 0.846 0.714 0.846h119.26c0.395 0 0.714-0.378 0.714-0.846v-92.518c0-0.4687-0.319-0.8463-0.714-0.8463h-119.26zm50.89 19.6h17.48c0.484 0 0.876 0.3886 0.876 0.8729v25.695c4.473 3.134 7.138 8.251 7.141 13.713 1e-3 9.256-7.501 16.759-16.757 16.76-9.256-1e-3 -16.758-7.504-16.757-16.76 8e-3 -5.457 2.672-10.568 7.141-13.699v-25.709c0-0.4843 0.392-0.8729 0.876-0.8729z" clip-rule="evenodd" fill="#3c9d7f" fill-rule="evenodd"/>
 <path d="m314.18 104.17v-40.647s1.304-29.502 35.822-29.502 35.822 29.502 35.822 29.502v41.405" stroke="#3c9d7f" stroke-opacity=".94118" stroke-width="19.162"/>
</svg>
